src/img/section-main/football.svg

<svg width="472" height="323" fill="none" xmlns="http://www.w3.org/2000/svg"><path d="M304.935 107.701s19.953-44.35 25.573-52.604c5.619-8.254 12.343-4.06 11.869 4.032-.474 8.094-7.581 51.44-7.581 51.44l-29.861-2.868z" fill="#346E91"/><path d="M341.307 53.541c.007 3.137-6.534 31.897-9.541 36.604-3.007 4.706-8.372 2.885-19.258 1.008a92.564 92.564 0 00-7.553 16.452l29.86 2.868s7.107-43.346 7.581-51.44a10.463 10.463 0 00-1.089-5.492z" fill="#2C5776"/><path d="M357.138 127.34c-5.267 17.692-21.89 11.183-44.054 5.413-22.165-5.769-38.792-18.791-35.42-28.576 5.17-14.936 22.677-13.402 44.849-7.67 22.173 5.731 38.757 16.986 34.625 30.833z" fill="#346E91"/><path d="M356.895 123.396a8.201 8.201 0 01-4.886-5.48 26.124 26.124 0 01-.996-5.953c-.057-.61-.075-1.313-.131-2.023a41.604 41.604 0 00-4.598-3.545c1.662 11.561-12.797 4.03-26.092.629a164.717 164.717 0 00-41.356-5.787c-.254.568-1.041 2.287-1.264 2.901-3.373 9.786 13.255 22.807 35.419 28.577 22.165 5.77 38.788 12.278 44.055-5.414a14.75 14.75 0 00.624-3.689 5.123 5.123 0 01-.775-.216z" fill="#2C5776"/><path d="M277.594 104.522c-2.885 9.744 13.574 22.512 35.489 28.231 21.916 5.72 38.439 12.129 43.877-4.93-24.921-12.597-51.185-21.81-79.366-23.301z" fill="#273C56"/><path d="M315.431 99.931c-.388 1.92-5.902 1.926-12.711.732-6.81-1.194-10.632-2.145-10.284-4.072.349-1.927 4.828-3.14 11.638-1.947 6.81 1.194 11.682 3.376 11.357 5.287zm12.387-34.571c-2.114 5.726-3.99 13.836-1.948 14.607 2.041.772 5.543-6.192 7.68-11.932 2.137-5.74 3.885-10.94 1.824-11.616-2.061-.675-5.427 3.24-7.556 8.942z" fill="#5CA1BD"/><path d="M435.331 440.151c9.952-32.744-72.726-86.87-184.668-120.892-111.941-34.022-210.755-35.058-220.707-2.314-9.952 32.744 72.727 86.869 184.668 120.892 111.941 34.022 210.755 35.058 220.707 2.314z" fill="#1F4060"/><path d="M433.654 445.683c9.952-32.744-72.727-86.869-184.668-120.892-111.942-34.022-210.756-35.058-220.708-2.314-9.952 32.745 72.727 86.87 184.668 120.892 111.941 34.023 210.756 35.059 220.708 2.314z" fill="#121A26"/><path d="M431.426 453.03c9.952-32.745-72.727-86.87-184.668-120.892-111.941-34.023-210.756-35.059-220.708-2.315-9.952 32.745 72.727 86.87 184.668 120.893 111.942 34.022 210.756 35.058 220.708 2.314z" fill="#4B8CAB"/><path d="M250.665 319.294c108.194 32.872 189.03 84.533 185.35 117.525l17.702-58.046a211.354 211.354 0 00-301.513-246.845A211.35 211.35 0 0049.293 255.841l-17.224 56.664c17.395-28.108 112.086-25.623 218.596 6.789z" fill="#346F93"/><path opacity=".58" d="M351.541 338.046c22.232-7.039 41.601-35.029 42.336-70.652.628-31.331-8.519-71.925-47.299-107.511-17.022-15.618-44.421-35.046-97.794-39.083-38.661-2.906-86.256 12.239-111.018 28.156-20.907 13.439-40.922 33.448-52.736 53.495a97.579 97.579 0 00-13.414 44.511l-.054.268c-.565 12.01.683 23.546 6.67 34.162a23.18 23.18 0 0020.262 11.537c40.341-.071 94.455 8.709 152.04 26.219 2.261.675 4.475 1.382 6.708 2.092 44.202 14.55 75.098 22.88 94.299 16.806z" fill="#5CA1BD"/><path d="M134.309 208.857c24.857-30.937 49.2-46.558 124.541-29.641 36.303 8.162 69.376 37.084 87.634 50.734-14.318-23.081-50.097-47.896-93.796-57.71-75.338-16.936-119.317-3.778-143.644 29.982-14.406 20.023-17.562 54.38 17.958 60.087-7.099-14.514.447-44.889 7.307-53.452z" fill="#1F4060"/><path d="M106.526 234.111c-1.552 20.759 15.247 27.883 20.476 28.198 43.031 2.53 99.188 13.26 157.615 35.513 53.062 20.231 67.152-4.569 72.527-19.923 5.694-16.248 4.366-71.143-100.273-99.363-84.263-22.791-146.521 4.736-150.345 55.575z" fill="#121A26"/><path d="M414.072 222.634c-4.443 2.219-12.321-2.686-17.649-10.931-5.327-8.245-6.089-16.648-1.727-18.864 4.362-2.216 12.248 2.651 17.602 10.862 5.355 8.21 6.174 16.724 1.774 18.933z" fill="#5CA1BD"/><path d="M191.465 235.827a4.813 4.813 0 01-4.415-5.144 12.176 12.176 0 00-3.307-8.657 19.049 19.049 0 00-12.933-6.384c-9.252-.668-17.76 5.764-18.3 11.508a4.802 4.802 0 01-8.442 2.724 4.801 4.801 0 01-1.129-3.496c.953-11.652 14.511-21.341 28.486-20.319a28.681 28.681 0 0119.501 9.666 21.549 21.549 0 015.646 15.58 4.82 4.82 0 01-5.149 4.434l.042.088zm89.604 22.651a4.8 4.8 0 01-2.171-5.971c4.939-12.505 18.672-18.204 32.66-13.384 13.435 4.587 21.504 17.261 18.734 29.505a4.794 4.794 0 01-5.735 3.626 4.8 4.8 0 01-3.626-5.735c1.683-7.45-3.68-15.322-12.483-18.317-8.804-2.994-17.583.228-20.575 7.834a4.799 4.799 0 01-6.225 2.738l-.579-.296z" fill="#43E0BB"/><path d="M435.57 277.942c-3.7-7.797-16.031-4.193-14.116 3.244a7.398 7.398 0 00-1.251 4.221c.038 11.593.414 23.193 1.278 34.752.551 7.761.542 15.529 6.723 21.03 4.389 3.882 10.319 1.123 11.863-3.958a82.228 82.228 0 00-4.497-59.289z" fill="#468AAD"/></svg>

<svg width="472" height="323" viewBox="0 0 472 323" fill="none" xmlns="http://www.w3.org/2000/svg">
<path d="M304.935 107.701C304.935 107.701 324.888 63.3507 330.508 55.097C336.127 46.8433 342.851 51.0361 342.377 59.1294C341.903 67.2228 334.796 110.569 334.796 110.569L304.935 107.701Z" fill="#346E91"/>
<path d="M341.307 53.5411C341.314 56.6781 334.773 85.4383 331.766 90.1446C328.759 94.8509 323.394 93.0295 312.508 91.1529C309.459 96.3771 306.929 101.887 304.955 107.605L334.815 110.473C334.815 110.473 341.922 67.1268 342.396 59.0335C342.539 57.1377 342.162 55.2392 341.307 53.5411Z" fill="#2C5776"/>
<path d="M357.138 127.34C351.871 145.032 335.248 138.523 313.084 132.753C290.919 126.984 274.292 113.962 277.664 104.177C282.834 89.241 300.341 90.7752 322.513 96.5066C344.686 102.238 361.27 113.493 357.138 127.34Z" fill="#346E91"/>
<path d="M356.895 123.396C355.711 122.925 354.653 122.185 353.805 121.234C352.956 120.282 352.342 119.146 352.009 117.916C351.448 115.977 351.114 113.979 351.013 111.963C350.956 111.353 350.938 110.65 350.882 109.94C349.433 108.652 347.897 107.468 346.284 106.395C347.946 117.956 333.487 110.425 320.192 107.024C306.708 103.348 292.811 101.404 278.836 101.237C278.582 101.805 277.795 103.524 277.572 104.138C274.199 113.924 290.827 126.945 312.991 132.715C335.156 138.485 351.779 144.993 357.046 127.301C357.41 126.103 357.619 124.864 357.67 123.612C357.407 123.561 357.148 123.488 356.895 123.396Z" fill="#2C5776"/>
<path d="M277.594 104.522C274.709 114.266 291.168 127.034 313.083 132.753C334.999 138.473 351.522 144.882 356.96 127.823C332.039 115.226 305.775 106.013 277.594 104.522Z" fill="#273C56"/>
<path d="M315.431 99.9315C315.043 101.851 309.529 101.857 302.72 100.663C295.91 99.4691 292.088 98.5181 292.436 96.5912C292.785 94.6642 297.264 93.4504 304.074 94.6444C310.884 95.8384 315.756 98.0198 315.431 99.9315Z" fill="#5CA1BD"/>
<path d="M327.818 65.3605C325.704 71.0858 323.828 79.196 325.87 79.9674C327.911 80.7387 331.413 73.7755 333.55 68.0349C335.687 62.2942 337.435 57.0943 335.374 56.4189C333.313 55.7435 329.947 59.6582 327.818 65.3605Z" fill="#5CA1BD"/>
<path d="M435.331 440.151C445.283 407.407 362.605 353.281 250.663 319.259C138.722 285.237 39.9082 284.201 29.9562 316.945C20.0042 349.689 102.683 403.814 214.624 437.837C326.565 471.859 425.379 472.895 435.331 440.151Z" fill="#1F4060"/>
<path d="M433.654 445.683C443.606 412.939 360.927 358.814 248.986 324.791C137.044 290.769 38.2303 289.733 28.2783 322.477C18.3263 355.222 101.005 409.347 212.946 443.369C324.887 477.392 423.702 478.428 433.654 445.683Z" fill="#121A26"/>
<path d="M431.426 453.03C441.378 420.285 358.699 366.16 246.758 332.138C134.817 298.115 36.0023 297.079 26.0503 329.823C16.0982 362.568 98.7772 416.693 210.718 450.716C322.66 484.738 421.474 485.774 431.426 453.03Z" fill="#4B8CAB"/>
<path d="M250.665 319.294C358.859 352.166 439.695 403.827 436.015 436.819L453.717 378.773C469.568 325.275 463.621 267.68 437.174 218.55C410.727 169.419 365.925 132.741 312.54 116.513C259.155 100.286 201.52 105.827 152.204 131.928C102.889 158.028 65.8955 202.571 49.2928 255.841L32.0692 312.505C49.464 284.397 144.155 286.882 250.665 319.294Z" fill="#346F93"/>
<path opacity="0.58" d="M351.541 338.046C373.773 331.007 393.142 303.017 393.877 267.394C394.505 236.063 385.358 195.469 346.578 159.883C329.556 144.265 302.157 124.837 248.784 120.8C210.123 117.894 162.528 133.039 137.766 148.956C116.859 162.395 96.8437 182.404 85.03 202.451C77.0383 215.99 72.4365 231.261 71.6164 246.962L71.5623 247.23C70.997 259.24 72.2447 270.776 78.2323 281.392C80.2893 284.933 83.2481 287.867 86.8072 289.894C90.3664 291.92 94.399 292.968 98.4945 292.929C138.835 292.858 192.949 301.638 250.534 319.148C252.795 319.823 255.009 320.53 257.242 321.24C301.444 335.79 332.34 344.12 351.541 338.046Z" fill="#5CA1BD"/>
<path d="M134.309 208.857C159.166 177.92 183.509 162.299 258.85 179.216C295.153 187.378 328.226 216.3 346.484 229.95C332.166 206.869 296.387 182.054 252.688 172.24C177.35 155.304 133.371 168.462 109.044 202.222C94.6382 222.245 91.4823 256.602 127.002 262.309C119.903 247.795 127.449 217.42 134.309 208.857Z" fill="#1F4060"/>
<path d="M106.526 234.111C104.974 254.87 121.773 261.994 127.002 262.309C170.033 264.839 226.19 275.569 284.617 297.822C337.679 318.053 351.769 293.253 357.144 277.899C362.838 261.651 361.51 206.756 256.871 178.536C172.608 155.745 110.35 183.272 106.526 234.111Z" fill="#121A26"/>
<path d="M414.072 222.634C409.629 224.853 401.751 219.948 396.423 211.703C391.096 203.458 390.334 195.055 394.696 192.839C399.058 190.623 406.944 195.49 412.298 203.701C417.653 211.911 418.472 220.425 414.072 222.634Z" fill="#5CA1BD"/>
<path d="M191.465 235.827C190.2 235.725 189.026 235.127 188.199 234.163C187.372 233.2 186.96 231.949 187.05 230.683C187.132 227.474 185.943 224.363 183.743 222.026C180.436 218.285 175.791 215.993 170.81 215.642C161.558 214.974 153.05 221.406 152.51 227.15C152.408 228.419 151.805 229.595 150.835 230.42C149.865 231.245 148.608 231.651 147.338 231.549C146.069 231.446 144.893 230.844 144.068 229.874C143.243 228.904 142.837 227.647 142.939 226.378C143.892 214.726 157.45 205.037 171.425 206.059C178.943 206.594 185.949 210.066 190.926 215.725C192.849 217.821 194.338 220.277 195.307 222.951C196.276 225.625 196.706 228.464 196.572 231.305C196.474 232.574 195.877 233.754 194.912 234.585C193.947 235.416 192.693 235.83 191.423 235.739L191.465 235.827Z" fill="#43E0BB"/>
<path d="M281.069 258.478C280.041 257.918 279.253 257.003 278.853 255.903C278.453 254.803 278.469 253.596 278.898 252.507C283.837 240.002 297.57 234.303 311.558 239.123C324.993 243.71 333.062 256.384 330.292 268.628C330.013 269.869 329.252 270.949 328.176 271.629C327.101 272.309 325.799 272.534 324.557 272.254C323.316 271.975 322.237 271.213 321.556 270.138C320.876 269.062 320.651 267.761 320.931 266.519C322.614 259.069 317.251 251.197 308.448 248.202C299.644 245.208 290.865 248.43 287.873 256.036C287.645 256.625 287.304 257.164 286.867 257.621C286.431 258.078 285.908 258.444 285.33 258.699C284.751 258.953 284.128 259.091 283.497 259.104C282.865 259.117 282.237 259.005 281.648 258.774L281.069 258.478Z" fill="#43E0BB"/>
<path d="M435.57 277.942C431.87 270.145 419.539 273.749 421.454 281.186C420.618 282.434 420.182 283.906 420.203 285.407C420.241 297 420.617 308.6 421.481 320.159C422.032 327.92 422.023 335.688 428.204 341.189C432.593 345.071 438.523 342.312 440.067 337.231C446.016 317.599 444.412 296.452 435.57 277.942Z" fill="#468AAD"/>
</svg>
